X:23
T:The Archbishop
T:Miss Sally Surman's Delight
C:1700s
L:1/4
M:2/2
S:Colin Hume's website,  colinhume.com  - chords can also be printed below the stave.
Q:1/2=112
K:A
P:A
|: A | "A"ce- "E7/B"ed | "A"c2 "E/G#"B2 | "A"AE- "/"EG/A/ | "E"BE- "/"EA |\
"A"c3/d/ "E/G#"ed | "F#m"ca- "B7"ag/f/ | "E"gf/e/ "B7"f^d | "E"e3 :|
P:B
|: e | "D"f3/g/ "A"ae | "D"fe- "A"ed/c/ | "D"fe- "A"ed/c/ | "E7"dc- "A"ce |\
"A"AA- "E7/G#"AB | "F#m"cf "D"ed | "A/E"c2 "E7"cB | "A"A3 :|

